X:1
T:Morn of Joy
T:Frank Sewall (1837-1915)
T:Morn of Joy
T:Public Domain
T:Public Domain
C:Frank Sewall (1837-1915)
Z:Public Domain
%%score ( 1 2 ) ( 3 4 )
L:1/8
M:4/4
K:F
V:1 treble 
V:2 treble 
V:3 bass 
V:4 bass 
V:1
 [Ac]2 [FA]2 [GB]2 [EG]2 | F2 [FA]2 [FA]4 | [Ac]2 [FA]2 [GB]2 [EG]2 | F2 [FA]2 [FA]4 | %4
w: 1.~Morn of joy and|morn of praise!|est day of all|the days, For|
w: 2.~Morn of glad- ness,|morn of light!|and gloom are put|to flight, For|
w: 3.~O, what bright- ness|from the Lord,|with- in His bless-|èd Word, For|
w: 4.~Thith- er, too, O|may we rise,|this earth- ly bo-|dy dies, Where|
 [EG]2 [Ec]2 [Ge]2 [Fd]2 | [Fd]4 [Ec]2 [Ge]2 | (G4 [^FA]2 [=F=B]2) | [Ec]8 | %8
w: Lord is ris- en,|is ris- en!|Lo! * *|come|
w: Lord is ris- en,|is ris- en!|Now * *|more|
w: Lord is ris- en,|is ris- en!|Tell- * *|of|
w: Lord is ris- en,|is ris- en!|Strive * *|then,|
 [GB]2 [GB]2 [FA]2 [EG]2 | [FA]2 [Ac]2 [Ac]4 | [GB]2 [GB]2 [FA]2 [EG]2 | [FA]2 [Ac]2 [Ac]4 | %12
w: at break of day,|Find the great|stone rolled a- way;|Hark! and hear|
w: the grave we fear,|For we know|“He is not here”;|But the an-|
w: the world of light,|Where there is|no death nor night,|Where, on East-|
w: in each new day,|All that’s wrong|to put a- way;|So shall we|
 [Ac]2 [FA]2 [df]2 [Bd]2 | [Bd]2 [Ac]2 [Ac]3 [GB] | [FA]3 [EG] [FA]2 [GB]2 | [Ac]4 [Ac]2 [GB]2 | %16
w: the an- gel say,|The Lord, the Lord|is ris- en, is|ri- sen. *|
w: gel speaks good cheer,|The Lord, the Lord|is ris- en, is|ris- en. Al-|
w: er morn- ing bright,|The Lord, the Lord|is ris- en, is|ris- en. *|
w: re- joic- ing say,|The Lord, the Lord|is ris- en, is|ris- en. *|
 ([FA]4 [EG]4 | [FA]8) | [Ac]4 ||"^Refrain" [FA]2 [GB]2 | ([Ac]3 [Bd]) [Ac]4 | %21
w: |||||
w: le- *||lu-|ia! Al-|le- * lu-|
w: |||||
w: |||||
 [GB]4 ([EG]2 [FA]2) | ([Ac]3 [GB]) [FA]4 | [Ac]4 ([FA]2 [GB]2) | ([Ac]3 [Bd]) [Ac]2 FF | %25
w: ||||
w: ia! Al- *|le- * lu-|ia! Al- *|le- * lu- ia! *|
w: ||||
w: ||||
 ([FB]4 [EG]4) | F8 |] %27
w: ||
w: ||
w: ||
w: ||
V:2
 x8 | F2 x6 | x8 | F2 x6 | x8 | x8 | G4 x4 | x8 | x8 | x8 | x8 | x8 | x8 | x8 | x8 | x8 | x8 | x8 | %18
w: |Bright-||the|||they||||||||||||
w: |Fear||the|||no||||||||||||
w: |Shines||the|||ing||||||||||||
w: |When||our|||we,||||||||||||
 x4 || x4 | x8 | x8 | x8 | x8 | x8 | x8 | F8 |] %27
w: |||||||||
w: |||||||||
w: |||||||||
w: |||||||||
V:3
 [F,C]2 [F,C]2 [C,C]2 [C,B,]2 | [F,A,]2 [F,C]2 [F,C]4 | [F,C]2 [F,C]2 [C,C]2 [C,B,]2 | %3
 [F,A,]2 [F,C]2 [F,C]4 | [C,C]2 [C,C]2 [C,C]2 [G,=B,]2 | [G,=B,]4 [C,C]2 [C,C]2 | (E4 _E2 D2) | %7
 [C,C]8 | [C,C]2 [C,C]2 [C,C]2 [C,C]2 | [F,C]2 [F,C]2 [F,C]4 | [C,C]2 [C,C]2 [C,C]2 [C,C]2 | %11
 [F,C]2 [F,C]2 [F,C]4 | [F,C]2 [F,C]2 [B,,B,]2 [D,B,]2 | [E,G,]2 [F,A,]2 [F,A,]3 [C,C] | %14
 [F,C]3 [C,C] [F,C]2 [F,C]2 | [F,C]4 [F,C]2 [B,,D]2 | ([C,C]8 | [F,C]8) | [F,C]4 || [F,C]4 | %20
 [F,C]4 [F,C]4 | [C,C]4 [C,C]4 | [E,C]4 [F,C]4 | [F,C]4 [F,C]4 | [F,C]4 [F,C]2 [D,D][D,D] | %25
 ([B,,D]4 C3 B,) | [F,A,]8 |] %27
V:4
 x8 | x8 | x8 | x8 | x8 | x8 | G,8 | x8 | x8 | x8 | x8 | x8 | x8 | x8 | x8 | x8 | x8 | x8 | x4 || %19
 x4 | x8 | x8 | x8 | x8 | x8 | x4 C,4 | x8 |] %27

